!!!OTL: 1794. Staende und Farben.
!!!ARE: Europa, Mitteleuropa, Deutschland, Hessen, Kassel
!!!SCT: E1794
!!!TXL: @@DE
!!!YEM: Copyright 1995, estate of Helmut Schaffrath.
**kern	**text
*ICvox	*
*M4/4	*
*met(c)	*
*k[f#]	*
*G:	*
=1	=1
{4b	Roth,
4b	roth,
4.b	roth
8g	ſind
=2	=2
8.a	al-
16a	-le
8a	mei-
8a	-ne
4a	Klei-
4d}	-der,
=3	=3
{4b	roth,
4b	roth,
4.b	roth
8g	ſind
=4	=4
8.a	al-
16a	-le
8a	mei-
8a	-ne
4a	Sa-
4d}	-chen
=5	=5
{4b	Drum
4b	lieb
4dd	ich,
4r	.
=6	=6
4a	was
4a	roth
4dd	iſt.
4r}	.
=7	=7
{4g	weil
4g	mein
8b/	Va-
8b/	-ter
4b	ein
=8	=8
8.a	Metʒ-
16a	-ger-
8a	-mei-
8f#	-ſter
4g	iſt.
4r}	.
==	==
!!!AGN: Staende - Lied
!!!ONB: ESAC (Essen Associative Code) Database: ERK3
!!!AMT: simple quadruple
!!!AIN: vox
!!!EED: Helmut Schaffrath
!!!EEV: 1.0
!!!GTL: Vermischter Inhalt.
!!!URL-scan: https://rosdok.uni-rostock.de/mcrviewer/recordIdentifier/rosdok_ppn745177999/iview2/phys_0572.iview2?x=-4.404412318552431&y=682.7893116176128&scale=0.6456904138606621&rotation=0&layout=singlePageLayout
!!!ENC: Anna Maria Matuszewska
!!!EEV: 2025/08/01
*-	*-
